X: 35611
T: Sadegurer Khosid
R: barndance
M: 4/4
K: Gminor
D2|:"Gm"B3A G2G2|z2BA GBAG|"D"A3G ^F2F2|"Cm"^FGFE "D"D4|
"D7"^FDFA "Gm"GDGB|"D7"ADAc "Gm"BGBd|"Cm"c2c2 cdec|"D7"d4 dcBA|
"Gm"B3A G2G2|z2BA GBAG|"D"A3G ^F2F2|"Cm"^FGFE "D"D4|
"D7"d3B3 c3A3|B3G3 A3^F3|"Gm"G2G2 "D7"BAG^F|"Gm"G4 zDGA:|
K:G
|:"G"BcBc B2AG|A2B2 z4|BcBc B2AG|ABG2 z4|
"G"BcBc B2AG|A2B2 z4|"Am"A2A2 "D7"GFEF|1 "G"G4 z4:|2 "Gm"G4||
K:Gm
|:z4|"Gm"d8|d8|d4 d4|d4 d4|
z2d2 d2d2|"Cm"c2z2 c4|"Gm"BcBA G^FGA|B2z2 d4|
z2d2 d2d2|"Cm"c2z2 c4|"Bb"BFFB "Ab"B_AAG|"Gm"G4:|

